Newaita-dark/apps/48/kcmspellchecking.svg

<svg height="48pt" viewBox="0 0 48 48" width="48pt" xmlns="http://www.w3.org/2000/svg" xmlns:xlink="http://www.w3.org/1999/xlink"><linearGradient id="a" gradientUnits="userSpaceOnUse" x1="23.81478" x2="23.81478" y1="42.0509045" y2="44.03547050005"><stop offset="0" stop-opacity=".27451"/><stop offset="1" stop-opacity="0"/></linearGradient><linearGradient id="b"><stop offset="0" stop-opacity=".313725"/><stop offset=".222222" stop-opacity=".27451"/><stop offset="1" stop-opacity="0"/></linearGradient><radialGradient id="c" cx="450.908936" cy="189.579361" gradientTransform="matrix(.00000026 -.117199 -.210958 -.00000015 73.234568 95.392999)" gradientUnits="userSpaceOnUse" r="21.166656" xlink:href="#b"/><radialGradient id="d" cx="450.908936" cy="189.579361" gradientTransform="matrix(-.00000026 .117199 .210958 .00000015 -26.597299 -11.291218)" gradientUnits="userSpaceOnUse" r="21.166656" xlink:href="#b"/><radialGradient id="e" cx="450.908936" cy="189.579361" gradientTransform="matrix(-.00000026 -.117199 .210958 -.00000015 -26.597299 95.392999)" gradientUnits="userSpaceOnUse" r="21.166656" xlink:href="#b"/><radialGradient id="f" cx="450.908936" cy="189.579361" gradientTransform="matrix(.00000026 .117199 -.210958 .00000015 73.234565 -11.291219)" gradientUnits="userSpaceOnUse" r="21.166656" xlink:href="#b"/><linearGradient id="g" gradientUnits="userSpaceOnUse" x1="254" x2="254" y1="233.5" y2="212.333328"><stop offset="0" stop-color="#66bb6a"/><stop offset="1" stop-color="#81c784"/></linearGradient><linearGradient id="h" gradientUnits="userSpaceOnUse" x1="23.814816" x2="23.814816" y1="38.08182980616" y2="4.34417306195"><stop offset="0" stop-color="#424242"/><stop offset="1" stop-color="#616161"/></linearGradient><path d="m12.898438 42.050781h20.839843v1.984375h-20.839843zm0 0" fill="url(#a)"/><path d="m33.738281 42.050781h3.96875v-1.984375h-3.96875zm0 0" fill="url(#c)"/><path d="m12.898438 42.050781h-3.96875v1.984375h3.96875zm0 0" fill="url(#d)"/><path d="m12.898438 42.050781h-3.96875v-1.984375h3.96875zm0 0" fill="url(#e)"/><path d="m33.738281 42.050781h3.96875v1.984375h-3.96875zm0 0" fill="url(#f)"/><path d="m137.570196 212.334192h232.852764c5.832776 0 10.582322 4.749546 10.582322 10.582322 0 5.832777-4.749546 10.582323-10.582322 10.582323h-232.852764c-5.832776 0-10.582323-4.749546-10.582323-10.582323 0-5.832776 4.749547-10.582322 10.582323-10.582322zm0 0" fill="url(#g)" stroke="#212121" stroke-linecap="square" stroke-linejoin="round" stroke-width="3" transform="matrix(.093759 0 0 .093759 0 20.158175)"/><path d="m15.875 4.34375c-2.199219 0-3.96875 1.769531-3.96875 3.96875v25.304688c0 1.097656.886719 1.984374 1.984375 1.984374 1.101563 0 1.984375-.886718 1.984375-1.984374v-7.441407c0-1.101562.886719-1.984375 1.984375-1.984375h11.910156c1.097657 0 1.984375.882813 1.984375 1.984375v7.441407c0 1.097656.882813 1.984374 1.984375 1.984374 1.097657 0 1.984375-.886718 1.984375-1.984374v-25.304688c0-2.199219-1.769531-3.96875-3.96875-3.96875zm1.984375 3.96875h11.910156c1.097657 0 1.984375.886719 1.984375 1.984375v7.9375c0 1.101563-.886718 1.984375-1.984375 1.984375h-11.910156c-1.097656 0-1.984375-.882812-1.984375-1.984375v-7.9375c0-1.097656.886719-1.984375 1.984375-1.984375zm0 0" fill="url(#h)"/><path d="m15.875 4.34375c-2.199219 0-3.96875 1.769531-3.96875 3.96875v.496094c0-2.199219 1.769531-3.96875 3.96875-3.96875h15.878906c2.199219 0 3.96875 1.769531 3.96875 3.96875v-.496094c0-2.199219-1.769531-3.96875-3.96875-3.96875zm0 13.890625v.496094c0 1.101562.886719 1.988281 1.984375 1.988281h11.910156c1.097657 0 1.984375-.886719 1.984375-1.988281v-.496094c0 1.101563-.886718 1.984375-1.984375 1.984375h-11.910156c-1.097656 0-1.984375-.882812-1.984375-1.984375zm0 0" fill="#fff" fill-opacity=".313725"/><path d="m17.859375 7.933594c-1.097656 0-1.984375.882812-1.984375 1.984375v.378906c0-1.097656.886719-1.984375 1.984375-1.984375h11.910156c1.097657 0 1.984375.886719 1.984375 1.984375v-.378906c0-1.101563-.886718-1.984375-1.984375-1.984375zm0 15.875c-1.097656 0-1.984375.886718-1.984375 1.984375v.382812c0-1.101562.886719-1.984375 1.984375-1.984375h11.910156c1.097657 0 1.984375.882813 1.984375 1.984375v-.382812c0-1.097657-.886718-1.984375-1.984375-1.984375zm-5.953125 9.3125v.378906c0 1.101562.886719 1.984375 1.984375 1.984375 1.101563 0 1.984375-.882813 1.984375-1.984375v-.378906c0 1.097656-.882812 1.984375-1.984375 1.984375-1.097656 0-1.984375-.886719-1.984375-1.984375zm19.847656 0v.378906c0 1.101562.882813 1.984375 1.984375 1.984375 1.097657 0 1.984375-.882813 1.984375-1.984375v-.378906c0 1.097656-.886718 1.984375-1.984375 1.984375-1.101562 0-1.984375-.886719-1.984375-1.984375zm0 0" fill-opacity=".235294"/><path d="m15.875 4.203125c-2.273438 0-4.109375 1.835937-4.109375 4.109375v25.304688c0 1.175781.953125 2.125 2.125 2.125 1.175781 0 2.125-.949219 2.125-2.125v-7.441407c0-1.027343.820313-1.84375 1.84375-1.84375h11.910156c1.023438 0 1.84375.816407 1.84375 1.84375v7.441407c0 1.175781.949219 2.125 2.125 2.125s2.125-.949219 2.125-2.125v-25.304688c0-2.273438-1.835937-4.109375-4.109375-4.109375zm0 .28125h15.878906c2.121094 0 3.828125 1.707031 3.828125 3.828125v25.304688c0 1.023437-.820312 1.84375-1.84375 1.84375-1.023437 0-1.84375-.820313-1.84375-1.84375v-7.441407c0-1.175781-.949219-2.125-2.125-2.125h-11.910156c-1.171875 0-2.125.949219-2.125 2.125v7.441407c0 1.023437-.820313 1.84375-1.84375 1.84375s-1.84375-.820313-1.84375-1.84375v-25.304688c0-2.121094 1.707031-3.828125 3.828125-3.828125zm1.984375 3.6875c-1.171875 0-2.125.949219-2.125 2.125v7.9375c0 1.175781.953125 2.125 2.125 2.125h11.910156c1.175781 0 2.125-.949219 2.125-2.125v-7.9375c0-1.175781-.949219-2.125-2.125-2.125zm0 .28125h11.910156c1.023438 0 1.84375.820313 1.84375 1.84375v7.9375c0 1.027344-.820312 1.84375-1.84375 1.84375h-11.910156c-1.023437 0-1.84375-.816406-1.84375-1.84375v-7.9375c0-1.023437.820313-1.84375 1.84375-1.84375zm0 0" fill="#212121"/></svg>

<?xml version="1.0" encoding="UTF-8"?>
<svg xmlns="http://www.w3.org/2000/svg" xmlns:xlink="http://www.w3.org/1999/xlink" width="48pt" height="48pt" viewBox="0 0 48 48" version="1.1">
<defs>
<linearGradient id="linear0" gradientUnits="userSpaceOnUse" x1="254" y1="233.5" x2="254" y2="254.666672" gradientTransform="matrix(0.093759,0,0,0.093759,-0.00000572259,20.158178)">
<stop offset="0" style="stop-color:rgb(0%,0%,0%);stop-opacity:0.27451;"/>
<stop offset="1" style="stop-color:rgb(0%,0%,0%);stop-opacity:0;"/>
</linearGradient>
<radialGradient id="radial0" gradientUnits="userSpaceOnUse" cx="450.908936" cy="189.579361" fx="450.908936" fy="189.579361" r="21.166656" gradientTransform="matrix(0.000000261256,-0.117199,-0.210958,-0.000000152308,73.234568,95.392999)">
<stop offset="0" style="stop-color:rgb(0%,0%,0%);stop-opacity:0.313725;"/>
<stop offset="0.222222" style="stop-color:rgb(0%,0%,0%);stop-opacity:0.27451;"/>
<stop offset="1" style="stop-color:rgb(0%,0%,0%);stop-opacity:0;"/>
</radialGradient>
<radialGradient id="radial1" gradientUnits="userSpaceOnUse" cx="450.908936" cy="189.579361" fx="450.908936" fy="189.579361" r="21.166656" gradientTransform="matrix(-0.000000261256,0.117199,0.210958,0.000000152308,-26.597299,-11.291218)">
<stop offset="0" style="stop-color:rgb(0%,0%,0%);stop-opacity:0.313725;"/>
<stop offset="0.222222" style="stop-color:rgb(0%,0%,0%);stop-opacity:0.27451;"/>
<stop offset="1" style="stop-color:rgb(0%,0%,0%);stop-opacity:0;"/>
</radialGradient>
<radialGradient id="radial2" gradientUnits="userSpaceOnUse" cx="450.908936" cy="189.579361" fx="450.908936" fy="189.579361" r="21.166656" gradientTransform="matrix(-0.000000261256,-0.117199,0.210958,-0.000000152308,-26.597299,95.392999)">
<stop offset="0" style="stop-color:rgb(0%,0%,0%);stop-opacity:0.313725;"/>
<stop offset="0.222222" style="stop-color:rgb(0%,0%,0%);stop-opacity:0.27451;"/>
<stop offset="1" style="stop-color:rgb(0%,0%,0%);stop-opacity:0;"/>
</radialGradient>
<radialGradient id="radial3" gradientUnits="userSpaceOnUse" cx="450.908936" cy="189.579361" fx="450.908936" fy="189.579361" r="21.166656" gradientTransform="matrix(0.000000261256,0.117199,-0.210958,0.000000152308,73.234565,-11.291219)">
<stop offset="0" style="stop-color:rgb(0%,0%,0%);stop-opacity:0.313725;"/>
<stop offset="0.222222" style="stop-color:rgb(0%,0%,0%);stop-opacity:0.27451;"/>
<stop offset="1" style="stop-color:rgb(0%,0%,0%);stop-opacity:0;"/>
</radialGradient>
<linearGradient id="linear1" gradientUnits="userSpaceOnUse" x1="254" y1="233.5" x2="254" y2="212.333328" gradientTransform="matrix(1,0,0,1,0,0)">
<stop offset="0" style="stop-color:rgb(40%,73.333333%,41.568627%);stop-opacity:1;"/>
<stop offset="1" style="stop-color:rgb(50.588235%,78.039216%,51.764706%);stop-opacity:1;"/>
</linearGradient>
<linearGradient id="linear2" gradientUnits="userSpaceOnUse" x1="960" y1="1535.118164" x2="960" y2="175.118134" gradientTransform="matrix(0.0248071,0,0,0.0248071,0,0)">
<stop offset="0" style="stop-color:rgb(25.882353%,25.882353%,25.882353%);stop-opacity:1;"/>
<stop offset="1" style="stop-color:rgb(38.039216%,38.039216%,38.039216%);stop-opacity:1;"/>
</linearGradient>
</defs>
<g id="surface1">
<path style=" stroke:none;fill-rule:nonzero;fill:url(#linear0);" d="M 12.898438 42.050781 L 33.738281 42.050781 L 33.738281 44.035156 L 12.898438 44.035156 Z M 12.898438 42.050781 "/>
<path style=" stroke:none;fill-rule:nonzero;fill:url(#radial0);" d="M 33.738281 42.050781 L 37.707031 42.050781 L 37.707031 40.066406 L 33.738281 40.066406 Z M 33.738281 42.050781 "/>
<path style=" stroke:none;fill-rule:nonzero;fill:url(#radial1);" d="M 12.898438 42.050781 L 8.929688 42.050781 L 8.929688 44.035156 L 12.898438 44.035156 Z M 12.898438 42.050781 "/>
<path style=" stroke:none;fill-rule:nonzero;fill:url(#radial2);" d="M 12.898438 42.050781 L 8.929688 42.050781 L 8.929688 40.066406 L 12.898438 40.066406 Z M 12.898438 42.050781 "/>
<path style=" stroke:none;fill-rule:nonzero;fill:url(#radial3);" d="M 33.738281 42.050781 L 37.707031 42.050781 L 37.707031 44.035156 L 33.738281 44.035156 Z M 33.738281 42.050781 "/>
<path style="fill-rule:nonzero;fill:url(#linear1);stroke-width:3;stroke-linecap:square;stroke-linejoin:round;stroke:rgb(12.941177%,12.941177%,12.941177%);stroke-opacity:1;stroke-miterlimit:4;" d="M 137.570196 212.334192 L 370.42296 212.334192 C 376.255736 212.334192 381.005282 217.083738 381.005282 222.916514 C 381.005282 228.749291 376.255736 233.498837 370.42296 233.498837 L 137.570196 233.498837 C 131.73742 233.498837 126.987873 228.749291 126.987873 222.916514 C 126.987873 217.083738 131.73742 212.334192 137.570196 212.334192 Z M 137.570196 212.334192 " transform="matrix(0.093759,0,0,0.093759,0,20.158175)"/>
<path style=" stroke:none;fill-rule:nonzero;fill:url(#linear2);" d="M 15.875 4.34375 C 13.675781 4.34375 11.90625 6.113281 11.90625 8.3125 L 11.90625 33.617188 C 11.90625 34.714844 12.792969 35.601562 13.890625 35.601562 C 14.992188 35.601562 15.875 34.714844 15.875 33.617188 L 15.875 26.175781 C 15.875 25.074219 16.761719 24.191406 17.859375 24.191406 L 29.769531 24.191406 C 30.867188 24.191406 31.753906 25.074219 31.753906 26.175781 L 31.753906 33.617188 C 31.753906 34.714844 32.636719 35.601562 33.738281 35.601562 C 34.835938 35.601562 35.722656 34.714844 35.722656 33.617188 L 35.722656 8.3125 C 35.722656 6.113281 33.953125 4.34375 31.753906 4.34375 Z M 17.859375 8.3125 L 29.769531 8.3125 C 30.867188 8.3125 31.753906 9.199219 31.753906 10.296875 L 31.753906 18.234375 C 31.753906 19.335938 30.867188 20.21875 29.769531 20.21875 L 17.859375 20.21875 C 16.761719 20.21875 15.875 19.335938 15.875 18.234375 L 15.875 10.296875 C 15.875 9.199219 16.761719 8.3125 17.859375 8.3125 Z M 17.859375 8.3125 "/>
<path style=" stroke:none;fill-rule:nonzero;fill:rgb(100%,100%,100%);fill-opacity:0.313725;" d="M 15.875 4.34375 C 13.675781 4.34375 11.90625 6.113281 11.90625 8.3125 L 11.90625 8.808594 C 11.90625 6.609375 13.675781 4.839844 15.875 4.839844 L 31.753906 4.839844 C 33.953125 4.839844 35.722656 6.609375 35.722656 8.808594 L 35.722656 8.3125 C 35.722656 6.113281 33.953125 4.34375 31.753906 4.34375 Z M 15.875 18.234375 L 15.875 18.730469 C 15.875 19.832031 16.761719 20.71875 17.859375 20.71875 L 29.769531 20.71875 C 30.867188 20.71875 31.753906 19.832031 31.753906 18.730469 L 31.753906 18.234375 C 31.753906 19.335938 30.867188 20.21875 29.769531 20.21875 L 17.859375 20.21875 C 16.761719 20.21875 15.875 19.335938 15.875 18.234375 Z M 15.875 18.234375 "/>
<path style=" stroke:none;fill-rule:nonzero;fill:rgb(0%,0%,0%);fill-opacity:0.235294;" d="M 17.859375 7.933594 C 16.761719 7.933594 15.875 8.816406 15.875 9.917969 L 15.875 10.296875 C 15.875 9.199219 16.761719 8.3125 17.859375 8.3125 L 29.769531 8.3125 C 30.867188 8.3125 31.753906 9.199219 31.753906 10.296875 L 31.753906 9.917969 C 31.753906 8.816406 30.867188 7.933594 29.769531 7.933594 Z M 17.859375 23.808594 C 16.761719 23.808594 15.875 24.695312 15.875 25.792969 L 15.875 26.175781 C 15.875 25.074219 16.761719 24.191406 17.859375 24.191406 L 29.769531 24.191406 C 30.867188 24.191406 31.753906 25.074219 31.753906 26.175781 L 31.753906 25.792969 C 31.753906 24.695312 30.867188 23.808594 29.769531 23.808594 Z M 11.90625 33.121094 L 11.90625 33.5 C 11.90625 34.601562 12.792969 35.484375 13.890625 35.484375 C 14.992188 35.484375 15.875 34.601562 15.875 33.5 L 15.875 33.121094 C 15.875 34.21875 14.992188 35.105469 13.890625 35.105469 C 12.792969 35.105469 11.90625 34.21875 11.90625 33.121094 Z M 31.753906 33.121094 L 31.753906 33.5 C 31.753906 34.601562 32.636719 35.484375 33.738281 35.484375 C 34.835938 35.484375 35.722656 34.601562 35.722656 33.5 L 35.722656 33.121094 C 35.722656 34.21875 34.835938 35.105469 33.738281 35.105469 C 32.636719 35.105469 31.753906 34.21875 31.753906 33.121094 Z M 31.753906 33.121094 "/>
<path style=" stroke:none;fill-rule:nonzero;fill:rgb(12.941177%,12.941177%,12.941177%);fill-opacity:1;" d="M 15.875 4.203125 C 13.601562 4.203125 11.765625 6.039062 11.765625 8.3125 L 11.765625 33.617188 C 11.765625 34.792969 12.71875 35.742188 13.890625 35.742188 C 15.066406 35.742188 16.015625 34.792969 16.015625 33.617188 L 16.015625 26.175781 C 16.015625 25.148438 16.835938 24.332031 17.859375 24.332031 L 29.769531 24.332031 C 30.792969 24.332031 31.613281 25.148438 31.613281 26.175781 L 31.613281 33.617188 C 31.613281 34.792969 32.5625 35.742188 33.738281 35.742188 C 34.914062 35.742188 35.863281 34.792969 35.863281 33.617188 L 35.863281 8.3125 C 35.863281 6.039062 34.027344 4.203125 31.753906 4.203125 Z M 15.875 4.484375 L 31.753906 4.484375 C 33.875 4.484375 35.582031 6.191406 35.582031 8.3125 L 35.582031 33.617188 C 35.582031 34.640625 34.761719 35.460938 33.738281 35.460938 C 32.714844 35.460938 31.894531 34.640625 31.894531 33.617188 L 31.894531 26.175781 C 31.894531 25 30.945312 24.050781 29.769531 24.050781 L 17.859375 24.050781 C 16.6875 24.050781 15.734375 25 15.734375 26.175781 L 15.734375 33.617188 C 15.734375 34.640625 14.914062 35.460938 13.890625 35.460938 C 12.867188 35.460938 12.046875 34.640625 12.046875 33.617188 L 12.046875 8.3125 C 12.046875 6.191406 13.753906 4.484375 15.875 4.484375 Z M 17.859375 8.171875 C 16.6875 8.171875 15.734375 9.121094 15.734375 10.296875 L 15.734375 18.234375 C 15.734375 19.410156 16.6875 20.359375 17.859375 20.359375 L 29.769531 20.359375 C 30.945312 20.359375 31.894531 19.410156 31.894531 18.234375 L 31.894531 10.296875 C 31.894531 9.121094 30.945312 8.171875 29.769531 8.171875 Z M 17.859375 8.453125 L 29.769531 8.453125 C 30.792969 8.453125 31.613281 9.273438 31.613281 10.296875 L 31.613281 18.234375 C 31.613281 19.261719 30.792969 20.078125 29.769531 20.078125 L 17.859375 20.078125 C 16.835938 20.078125 16.015625 19.261719 16.015625 18.234375 L 16.015625 10.296875 C 16.015625 9.273438 16.835938 8.453125 17.859375 8.453125 Z M 17.859375 8.453125 "/>
</g>
</svg>
